X: 61
T: Levantine's Barrel
T: the Tullamore Piper
T: Bummer's Reel
S: via PR
F: ../mirror/kirby98.fsnet.co.uk/le/Levantines_Barrel_1.abc
M: 4/4
L: 1/8
K: D
   fe \
| "D"dfAd f2fe |    d2ba ^gafd | "A7"ceAc eAce | "D"dfba "A7"^gafe |
| "D"dfAd f2fe | "D"d2ba ^gafd | "A7"ceAc eAce | "D"d2f2  d2  :|
|: A2 \
| "G"B2c2 d2cB | "D"BA^GA F2ed | "A7"ceAc eAce | "D"dfba ^gafd |
| "G"B2c2 d2cB | "D"BA^GA F2ed | "A7"ceAc eAce | "D"d2f2  d2  :|

%%sep 1 1 500

